X:18940
T: Wylam Away
C:Trad
S:Northumbrian Minstrelsy
M:6/8l
K:G
ef |g2d2B2 g2G2B2| g2d2B2 A4 ef|g2d2B2 g2G2B2| g2d2B2 G4:: e2| d2Bcd2 d2Bcd2|\
d2Bcd2 A4 e2|d2Bcd2 d2Bcd2|d2Bcd2 G4::c2| B2A2G2 e2d2B2 |g2d2B2 A2B2c2|\
d2Bcd2 A4 e2|d2Bcd2 d2Bcd2|d2Bcd2 G4::c| B2A2G2 e2d2B2 |g2d2B2 A2B2c2|\
B2A2G2 e2d2B2 |g2d2B2 G4:|


